src/assets/our_advantages/item-oa-4.svg

<svg width="100" height="100" viewBox="0 0 100 100" fill="none" xmlns="http://www.w3.org/2000/svg">
<circle cx="50" cy="50" r="50" fill="#0F76D1"/>
<path d="M73.112 37.7337L55.9691 28.2143C55.7159 28.0737 55.4317 28 55.1428 28C54.8539 28 54.5696 28.0737 54.3165 28.2143L37.1736 37.7337C36.9048 37.8831 36.6807 38.1026 36.5246 38.3693C36.3685 38.636 36.2861 38.9401 36.2861 39.2499C36.2861 39.5596 36.3685 39.8637 36.5246 40.1304C36.6807 40.3971 36.9048 40.6166 37.1736 40.766L53.4285 49.7921V68.3445L48.2239 65.454L46.5713 68.4847L54.3165 72.7857C54.5696 72.9263 54.8539 73 55.1428 73C55.4317 73 55.7159 72.9263 55.9691 72.7857L73.112 63.2663C73.3808 63.117 73.6051 62.8975 73.7613 62.6308C73.9175 62.3641 73.9999 62.06 74 61.7501V39.2499C73.9999 38.94 73.9175 38.6359 73.7613 38.3692C73.6051 38.1025 73.3808 37.883 73.112 37.7337ZM55.1428 31.7071L68.7285 39.2499L55.1428 46.7926L41.557 39.2499L55.1428 31.7071ZM70.5714 60.7272L56.8571 68.3427V49.7904L70.5714 42.1749V60.7272Z" fill="white"/>
<path d="M39.7143 50.4999H26V47.0383H39.7143V50.4999ZM43.1429 64.3463H29.4286V60.8847H43.1429V64.3463ZM46.5715 57.4231H32.8572V53.9615H46.5715V57.4231Z" fill="white"/>
</svg>

<svg xmlns="http://www.w3.org/2000/svg" width="100" height="100" fill="none"><circle cx="50" cy="50" r="50" fill="#0F76D1"/><path fill="#fff" d="m73.112 37.734-17.143-9.52a1.7 1.7 0 0 0-1.653 0l-17.142 9.52c-.27.15-.493.369-.65.635a1.744 1.744 0 0 0 .65 2.397l16.255 9.026v18.552l-5.205-2.89-1.653 3.03 7.746 4.302a1.7 1.7 0 0 0 1.652 0l17.143-9.52c.269-.149.493-.368.65-.635.156-.267.238-.571.238-.88V39.25c0-.31-.082-.614-.239-.88a1.7 1.7 0 0 0-.649-.636m-17.97-6.027 13.586 7.543-13.585 7.543-13.586-7.543zm15.43 29.02-13.715 7.616V49.79l13.714-7.615z"/><path fill="#fff" d="M39.714 50.5H26v-3.462h13.714zm3.429 13.846H29.429v-3.461h13.714zm3.428-6.923H32.858v-3.462h13.715z"/></svg>
